_/img/social-icon/LinkedIn_black.svg

<svg xmlns="http://www.w3.org/2000/svg" width="32" height="32" viewBox="0 0 32 32"><path d="M29 0H3a3.076 3.076 0 00-3 3v26a3.009 3.009 0 003 3h26a2.946 2.946 0 003-3V3a3.009 3.009 0 00-3-3zM12 26H8V12h4zm-2-16a2 2 0 112-2 2.006 2.006 0 01-2 2zm16 16h-4v-8a2 2 0 00-4 0v8h-4V12h4v2.5c.8-1.1 2.1-2.5 3.5-2.5a4.736 4.736 0 014.5 5z" fill="#333"/></svg>

<svg xmlns="http://www.w3.org/2000/svg" width="32" height="32" viewBox="0 0 32 32">
  <defs>
    <style>
      .cls-1 {
        fill: #333;
      }
    </style>
  </defs>
  <path id="linkedin" class="cls-1" d="M29,0H3A3.076,3.076,0,0,0,0,3V29a3.009,3.009,0,0,0,3,3H29a2.946,2.946,0,0,0,3-3V3A3.009,3.009,0,0,0,29,0ZM12,26H8V12h4ZM10,10a2,2,0,1,1,2-2A2.006,2.006,0,0,1,10,10ZM26,26H22V18a2,2,0,0,0-4,0v8H14V12h4v2.5c.8-1.1,2.1-2.5,3.5-2.5A4.736,4.736,0,0,1,26,17Z"/>
</svg>
